src/categories-icons-sprite/categories/svg-cat-women-gloves.svg

<svg width="33" height="28" viewBox="0 0 33 28" fill="none" xmlns="http://www.w3.org/2000/svg">
<path class="p-FF914A" d="M6.78478 18.6666L8.65984 17.875L8.11797 20L6.11807 21.9999C5.74986 22.3681 5.15287 22.3681 4.7847 21.9998C4.41657 21.6316 4.4166 21.0348 4.78476 20.6666L6.78478 18.6666Z" fill="#A1D1FD"/>
<path class="p-FF914A" d="M8.78603 24.6667C8.41783 25.0349 7.82084 25.0349 7.45267 24.6667C7.08455 24.2985 7.08458 23.7016 7.45275 23.3334L11.3384 19.448L12.6716 20.7812L8.78603 24.6667Z" fill="#A1D1FD"/>
<path class="p-FF914A" d="M12.1188 24.0001L14.1188 23.3333L13.4522 25.3333L11.4522 27.3333C11.084 27.7015 10.4871 27.7015 10.1189 27.3334C9.75069 26.9652 9.75066 26.3682 10.1189 26L12.1188 24.0001Z" fill="#A1D1FD"/>
<path class="p-FF6A52" d="M19.7862 5.65685L19.7673 8.54199L16.1093 11.2194L16.0904 11.2005L12.0928 7.97606L12.4323 5.65685L16.0904 3.9409L16.4486 3.77124L19.7862 5.65685Z" fill="#65B3E7"/>
<path class="p-F0384A" d="M19.7867 5.65685L19.7678 8.54199L16.1097 11.2194L16.0908 11.2005V3.9409L16.449 3.77124L19.7867 5.65685Z" fill="#4D98CB"/>
<path class="p-FF6A52" d="M25.443 0L23.9909 3.35654L19.7861 5.65684H12.4322L7.96323 3.05479L6.77539 0H25.443Z" fill="#65B3E7"/>
<path class="p-F0384A" d="M25.4435 0L23.9915 3.35654L19.7867 5.65684H16.0908V0H25.4435Z" fill="#4D98CB"/>
<path class="p-FF914A" d="M14.7852 10.6667L21.4516 17.3334L28.1185 10.6664L26.5823 5.35921L21.4518 4L14.7852 10.6667Z" fill="#A1D1FD"/>
<path class="p-FF914A" d="M13.4516 25.3335L6.78516 18.6668L10.785 14.667L17.4516 21.3334L13.4516 25.3335Z" fill="#A1D1FD"/>
<path class="p-FFB64C" d="M20.1175 24.0001L22.1174 26C22.4856 26.3682 22.4856 26.9652 22.1173 27.3334C21.7491 27.7015 21.1522 27.7015 20.7841 27.3333L18.784 25.3333L18.1592 23.2917L20.1175 24.0001Z" fill="#B9DFFC"/>
<path class="p-FFB64C" d="M22.7854 21.3331L24.7855 23.3333C25.1536 23.7015 25.1536 24.2984 24.7855 24.6665C24.4173 25.0347 23.8204 25.0347 23.4522 24.6666L21.452 22.6665L20.8271 20.6248L22.7854 21.3331Z" fill="#B9DFFC"/>
<path class="p-FFB64C" d="M25.4509 18.6666L27.451 20.6666C27.8191 21.0348 27.8192 21.6317 27.451 21.9999C27.0829 22.3681 26.4859 22.3681 26.1177 21.9999L24.1178 20L23.4092 18.0415L25.4509 18.6666Z" fill="#B9DFFC"/>
<path class="p-FF6A52" d="M25.452 0L21.4521 4.00005L28.1188 10.6665L32.1815 6.53679L25.452 0Z" fill="#65B3E7"/>
<path class="p-FFB64C" d="M25.4435 18.6675L18.7872 25.3426L4.11719 10.6726L5.56896 5.44933L10.7922 3.99756L16.0908 9.29594L25.4435 18.6675Z" fill="#B9DFFC"/>
<path class="p-FFB64C" d="M25.4435 18.6675L18.7871 25.3425L16.0908 22.6462V9.2959L25.4435 18.6675Z" fill="#B9DFFC"/>
<path class="p-FF914A" d="M6.78502 0L0 6.53679L4.1184 10.6667L10.7851 4.00005L6.78502 0Z" fill="#A1D1FD"/>
</svg>

<svg width="33" height="28" fill="none" xmlns="http://www.w3.org/2000/svg"><path class="p-FF914A" d="M6.785 18.667l1.875-.792L8.118 20l-2 2a.943.943 0 11-1.333-1.333l2-2zM8.786 24.667a.943.943 0 11-1.333-1.334l3.885-3.885 1.334 1.333-3.886 3.886zM12.119 24l2-.667-.667 2-2 2A.943.943 0 1110.12 26l2-2z" fill="#A1D1FD"/><path class="p-FF6A52" d="M19.786 5.657l-.019 2.885-3.658 2.677-.019-.018-3.997-3.225.34-2.32 3.657-1.715.359-.17 3.337 1.886z" fill="#65B3E7"/><path class="p-F0384A" d="M19.787 5.657l-.02 2.885-3.657 2.677-.02-.018V3.94l.359-.17 3.338 1.886z" fill="#4D98CB"/><path class="p-FF6A52" d="M25.443 0l-1.452 3.357-4.205 2.3h-7.354L7.963 3.055 6.775 0h18.668z" fill="#65B3E7"/><path class="p-F0384A" d="M25.444 0L23.99 3.357l-4.204 2.3H16.09V0h9.352z" fill="#4D98CB"/><path class="p-FF914A" d="M14.785 10.667l6.667 6.666 6.666-6.667-1.536-5.307L21.452 4l-6.667 6.667zM13.452 25.334l-6.667-6.667 4-4 6.667 6.666-4 4z" fill="#A1D1FD"/><path class="p-FFB64C" d="M20.117 24l2 2a.943.943 0 11-1.333 1.333l-2-2-.625-2.041 1.959.708zM22.785 21.333l2 2a.943.943 0 01-1.333 1.334l-2-2-.625-2.042 1.958.708zM25.45 18.667l2.001 2A.943.943 0 0126.118 22l-2-2-.709-1.959 2.042.626z" fill="#B9DFFC"/><path class="p-FF6A52" d="M25.452 0l-4 4 6.667 6.666 4.063-4.13L25.451 0z" fill="#65B3E7"/><path class="p-FFB64C" d="M25.444 18.668l-6.657 6.675-14.67-14.67L5.57 5.449l5.223-1.451 5.299 5.298 9.352 9.372z" fill="#B9DFFC"/><path class="p-FFB64C" d="M25.444 18.668l-6.657 6.675-2.696-2.697V9.296l9.352 9.372z" fill="#B9DFFC"/><path class="p-FF914A" d="M6.785 0L0 6.537l4.118 4.13L10.785 4l-4-4z" fill="#A1D1FD"/></svg>
